src/WeatherTwentyOne/Resources/Images/add_icon.svg

<svg width="54" height="54" viewBox="0 0 54 54" fill="none" xmlns="http://www.w3.org/2000/svg">
<path d="M27 13.875C27.5802 13.875 28.1366 14.1055 28.5468 14.5157C28.957 14.9259 29.1875 15.4823 29.1875 16.0625V24.8125H37.9375C38.5177 24.8125 39.0741 25.043 39.4843 25.4532C39.8945 25.8634 40.125 26.4198 40.125 27C40.125 27.5802 39.8945 28.1366 39.4843 28.5468C39.0741 28.957 38.5177 29.1875 37.9375 29.1875H29.1875V37.9375C29.1875 38.5177 28.957 39.0741 28.5468 39.4843C28.1366 39.8945 27.5802 40.125 27 40.125C26.4198 40.125 25.8634 39.8945 25.4532 39.4843C25.043 39.0741 24.8125 38.5177 24.8125 37.9375V29.1875H16.0625C15.4823 29.1875 14.9259 28.957 14.5157 28.5468C14.1055 28.1366 13.875 27.5802 13.875 27C13.875 26.4198 14.1055 25.8634 14.5157 25.4532C14.9259 25.043 15.4823 24.8125 16.0625 24.8125H24.8125V16.0625C24.8125 15.4823 25.043 14.9259 25.4532 14.5157C25.8634 14.1055 26.4198 13.875 27 13.875ZM0.75 27C0.75 23.5528 1.42898 20.1394 2.74816 16.9546C4.06735 13.7698 6.00091 10.876 8.43845 8.43845C10.876 6.00091 13.7698 4.06735 16.9546 2.74816C20.1394 1.42898 23.5528 0.75 27 0.75C30.4472 0.75 33.8606 1.42898 37.0454 2.74816C40.2302 4.06735 43.124 6.00091 45.5616 8.43845C47.9991 10.876 49.9327 13.7698 51.2518 16.9546C52.571 20.1394 53.25 23.5528 53.25 27C53.25 33.9619 50.4844 40.6387 45.5616 45.5616C40.6387 50.4844 33.9619 53.25 27 53.25C20.0381 53.25 13.3613 50.4844 8.43845 45.5616C3.51562 40.6387 0.75 33.9619 0.75 27ZM27 5.125C21.1984 5.125 15.6344 7.42968 11.532 11.532C7.42968 15.6344 5.125 21.1984 5.125 27C5.125 32.8016 7.42968 38.3656 11.532 42.468C15.6344 46.5703 21.1984 48.875 27 48.875C32.8016 48.875 38.3656 46.5703 42.468 42.468C46.5703 38.3656 48.875 32.8016 48.875 27C48.875 21.1984 46.5703 15.6344 42.468 11.532C38.3656 7.42968 32.8016 5.125 27 5.125Z" fill="#637989"/>
</svg>

<svg width="54" height="54" fill="none" xmlns="http://www.w3.org/2000/svg">
    <path
        d="M27 13.875a2.188 2.188 0 012.188 2.188v8.75h8.75a2.188 2.188 0 010 4.375h-8.75v8.75a2.188 2.188 0 01-4.375 0v-8.75h-8.75a2.188 2.188 0 010-4.375h8.75v-8.75A2.188 2.188 0 0127 13.874zM.75 27a26.25 26.25 0 1152.5 0 26.25 26.25 0 01-52.5 0zM27 5.125a21.875 21.875 0 100 43.75 21.875 21.875 0 000-43.75z"
        fill="#637989" />
</svg>
